X: 1
T: Allow, The
M: 4/4
L: 1/8
R: reel
K: Dmaj
|:g|fddc dcBA|GABd c3B|AGED CDEF|GEAG E3g|
fddc dcBA|GABd c3B|AGED CDEG|FDEC D3:|
|:E|F2AF DFAF|fFeF dFAF|efec dcBA|GFED E3G|
F2AF DFAF|fFeF dFAF|GFED CDEG|FDEC D3:|
